Newaita-dark/apps/22/latexila.svg

<svg height="22pt" viewBox="0 0 22 22" width="22pt" xmlns="http://www.w3.org/2000/svg" xmlns:xlink="http://www.w3.org/1999/xlink"><linearGradient id="a" gradientUnits="userSpaceOnUse" x1="10.9151146" x2="10.9151146" y1="19.27333615" y2="20.18292934324"><stop offset="0" stop-opacity=".27451"/><stop offset="1" stop-opacity="0"/></linearGradient><linearGradient id="b"><stop offset="0" stop-opacity=".313725"/><stop offset=".222222" stop-opacity=".27451"/><stop offset="1" stop-opacity="0"/></linearGradient><radialGradient id="c" cx="450.90894" cy="189.57936" gradientTransform="matrix(.00000012 -.0537161 -.0966889 -.00000007 33.565843 43.721792)" gradientUnits="userSpaceOnUse" r="21.166656" xlink:href="#b"/><radialGradient id="d" cx="450.90894" cy="189.57936" gradientTransform="matrix(-.00000012 .0537161 .0966889 .00000007 -12.190427 -5.175142)" gradientUnits="userSpaceOnUse" r="21.166656" xlink:href="#b"/><radialGradient id="e" cx="450.90894" cy="189.57936" gradientTransform="matrix(-.00000012 -.0537161 .0966889 -.00000007 -12.190427 43.721793)" gradientUnits="userSpaceOnUse" r="21.166656" xlink:href="#b"/><radialGradient id="f" cx="450.90894" cy="189.57936" gradientTransform="matrix(.00000012 .0537161 -.0966889 .00000007 33.565842 -5.175142)" gradientUnits="userSpaceOnUse" r="21.166656" xlink:href="#b"/><linearGradient id="g" gradientUnits="userSpaceOnUse" x1="10.687706" x2="10.687706" y1="19.27332442218" y2="1.99107551259"><stop offset="0" stop-color="#ffca28"/><stop offset="1" stop-color="#ffd54f"/></linearGradient><linearGradient id="h"><stop offset="0" stop-color="#26a69a"/><stop offset="1" stop-color="#4db6ac"/></linearGradient><linearGradient id="i" gradientUnits="userSpaceOnUse" x1="10.687706" x2="10.687706" xlink:href="#h" y1="19.27332442218" y2="1.99107551259"/><linearGradient id="j" gradientTransform="matrix(.00803973 .00803973 -.00803973 .00803973 14.325834 1.339246)" gradientUnits="userSpaceOnUse" x1="1157.7817" x2="614.72894" xlink:href="#h" y1="1072.8989" y2="504.99619"/><path d="m5.914062 19.273438h9.550782v.910156h-9.550782zm0 0" fill="url(#a)"/><path d="m15.464844 19.273438h1.816406v-.910157h-1.816406zm0 0" fill="url(#c)"/><path d="m5.914062 19.273438h-1.820312v.910156h1.820312zm0 0" fill="url(#d)"/><path d="m5.914062 19.273438h-1.820312v-.910157h1.820312zm0 0" fill="url(#e)"/><path d="m15.464844 19.273438h1.816406v.910156h-1.816406zm0 0" fill="url(#f)"/><path d="m5.003906 1.992188c-.503906 0-.910156.40625-.910156.910156v15.460937c0 .503907.40625.910157.910156.910157h11.367188c.503906 0 .910156-.40625.910156-.910157v-12.277343l-4.09375-4.09375zm9.09375 0 3.183594 3.183593v-2.273437c0-.503906-.40625-.910156-.910156-.910156zm0 0" fill="url(#g)"/><path d="m14.097656 1.992188 3.183594 3.183593v-2.273437c0-.503906-.40625-.910156-.910156-.910156zm0 0" fill="url(#i)"/><path d="m5.003906 1.992188c-.503906 0-.910156.40625-.910156.910156v.226562c0-.503906.40625-.910156.910156-.910156h8.183594l4.09375 4.09375v-.226562l-4.09375-4.09375zm9.09375 0 .226563.226562h2.046875c.503906 0 .910156.40625.910156.910156v-.226562c0-.503906-.40625-.910156-.910156-.910156zm0 0" fill="#fff" fill-opacity=".392157"/><path d="m14.097656 1.992188 3.183594 3.183593v-.339843l-2.84375-2.84375zm-10.003906 16.035156v.335937c0 .503907.40625.910157.910156.910157h11.367188c.503906 0 .910156-.40625.910156-.910157v-.335937c0 .503906-.40625.910156-.910156.910156h-11.367188c-.503906 0-.910156-.40625-.910156-.910156zm0 0" fill-opacity=".235294"/><path d="m5.003906 1.925781c-.539062 0-.976562.4375-.976562.976563v15.460937c0 .539063.4375.972657.976562.972657h11.367188c.539062 0 .976562-.433594.976562-.972657v-12.277343c0-.019532-.007812-.035157-.019531-.046876l-4.09375-4.09375c-.011719-.011718-.027344-.019531-.046875-.019531zm9.09375 0c-.023437 0-.046875.015625-.058594.039063-.011718.027344-.003906.054687.015626.070312l3.183593 3.183594c.015625.019531.042969.027344.070313.015625.023437-.011719.039062-.035156.039062-.058594v-2.273437c0-.539063-.4375-.976563-.976562-.976563zm-9.09375.128907h8.160156l4.054688 4.054687v12.253906c0 .46875-.375.84375-.847656.84375h-11.367188c-.46875 0-.847656-.375-.847656-.84375v-15.460937c0-.472656.378906-.847656.847656-.847656zm9.25 0h2.117188c.472656 0 .847656.375.847656.847656v2.117187zm0 0" fill="#212121"/><path d="m17.097656 11.804688c-.230468 0-.464844.089843-.640625.269531l-3.21875 3.214843-.480469.484376 2.25 2.25 3.699219-3.699219c.355469-.355469.355469-.929688 0-1.285157l-.964843-.964843c-.179688-.179688-.410157-.269531-.644532-.269531zm-4.824218 4.449218c-.050782.050782-.089844.117188-.113282.195313l-.644531 2.253906c-.097656.339844.21875.660156.5625.558594l2.25-.640625c.078125-.023438.144531-.0625.199219-.117188zm0 0" fill="url(#j)"/><path d="m17.097656 11.804688c-.230468 0-.464844.089843-.640625.269531l-3.21875 3.214843-.480469.484376.1875.1875.292969-.292969 3.21875-3.214844c.355469-.359375.929688-.359375 1.285157 0l.964843.964844c.128907.128906.210938.285156.246094.453125.0625-.292969-.019531-.605469-.246094-.832032l-.964843-.964843c-.179688-.179688-.410157-.269531-.644532-.269531zm0 0" fill="#d7d7d7" fill-opacity=".588235"/><path d="m17.097656 11.804688c-.230468 0-.464844.089843-.640625.269531l-3.21875 3.214843-.480469.484376.121094.121093.359375-.359375 3.21875-3.214844c.007813-.011718.019531-.023437.03125-.03125.011719-.011718.023438-.019531.035157-.03125.019531-.015624.039062-.027343.054687-.042968.019531-.011719.039063-.023438.058594-.035156.027343-.015626.050781-.027344.078125-.042969.09375-.042969.195312-.070313.296875-.078125.027343-.003906.058593-.003906.085937-.003906.03125 0 .058594 0 .089844.003906.097656.007812.199219.035156.292969.078125.027343.015625.054687.027343.078125.042969.019531.011718.039062.023437.058594.035156.019531.015625.039062.027344.054687.042968.011719.011719.023437.019532.035156.03125.011719.007813.023438.019532.035157.03125l.964843.964844c.007813.007813.015625.015625.023438.027344.003906 0 .003906.003906.007812.007812.003907.003907.011719.011719.015625.015626.003906.003906.003906.007812.007813.011718.007812.003906.011719.011719.015625.019532.003906 0 .003906.003906.007812.003906.003906.011718.011719.019531.019532.027344 0 .003906.003906.003906.003906.007812.003906.007812.011718.015625.015625.023438 0 0 .003906.003906.003906.007812.003906.007812.011719.015625.015625.023438 0 0 .003906.003906.003906.003906.003906.011718.011719.019531.015625.03125.007813.011718.011719.019531.015625.03125 0 0 .003906.003906.003906.003906.003907.011719.007813.019531.011719.027344 0 0 .003907.003906.003907.007812.003906.007813.007812.019532.011718.027344.003906.011719.007813.023438.011719.035156.003906.011719.007813.023438.011719.035156l.011718.035157c.003907.023437.011719.046875.015626.070312 0 .011719.003906.023438.003906.035157.039062-.273438-.046875-.558594-.257813-.765626l-.964843-.964843c-.179688-.179688-.410157-.269531-.644532-.269531zm-4.824218 4.449218c-.050782.050782-.089844.117188-.113282.195313l-.644531 2.253906c-.023437.085937-.023437.171875 0 .25 0-.003906 0-.003906 0-.003906l.644531-2.25c.023438-.078125.0625-.144531.113282-.199219l2.105468 2.105469c.054688-.027344.105469-.058594.148438-.101563zm0 0" fill="#d7d7d7" fill-opacity=".588235" fill-rule="evenodd"/><path d="m18.964844 13.566406c-.023438.195313-.109375.382813-.257813.53125l-3.699219 3.699219-2.136718-2.140625-.113282.117188 2.25 2.25 3.699219-3.699219c.207031-.207031.292969-.488281.257813-.757813zm-4.574219 4.804688c-.019531.007812-.039063.015625-.0625.023437l-2.25.640625c-.257813.074219-.503906-.089844-.566406-.320312-.085938.335937.226562.644531.566406.546875l2.25-.640625c.078125-.023438.144531-.0625.199219-.117188zm0 0" fill-opacity=".235294"/><g fill="none" stroke="#212121" stroke-linecap="round" stroke-linejoin="round" stroke-width="3" transform="matrix(.0429729 0 0 .0429729 0 9.239163)"><path d="m412.869664 65.973168c-8.271938-8.271937-21.634298-8.271937-29.906235 0l-74.901938 74.811038-11.180751 11.271651 52.358637 52.358636 86.082688-86.082688c8.271938-8.271938 8.271938-21.634298 0-29.906235zm0 0"/><path d="m285.609089 163.236607c-1.181705 1.181706-2.090709 2.727013-2.636112 4.545021l-14.998567 52.449537c-2.272511 7.908335 5.090423 15.362169 13.089659 12.998758l52.358636-14.907667c1.818008-.545402 3.363315-1.454406 4.635921-2.727012zm0 0"/></g></svg>

<?xml version="1.0" encoding="UTF-8"?>
<svg xmlns="http://www.w3.org/2000/svg" xmlns:xlink="http://www.w3.org/1999/xlink" width="22pt" height="22pt" viewBox="0 0 22 22" version="1.1">
<defs>
<linearGradient id="linear0" gradientUnits="userSpaceOnUse" x1="254" y1="233.5" x2="254" y2="254.66667" gradientTransform="matrix(0.0429729,0,0,0.0429729,-0.00000171891,9.239164)">
<stop offset="0" style="stop-color:rgb(0%,0%,0%);stop-opacity:0.27451;"/>
<stop offset="1" style="stop-color:rgb(0%,0%,0%);stop-opacity:0;"/>
</linearGradient>
<radialGradient id="radial0" gradientUnits="userSpaceOnUse" cx="450.90894" cy="189.57936" fx="450.90894" fy="189.57936" r="21.166656" gradientTransform="matrix(0.000000119742,-0.0537161,-0.0966889,-0.0000000698078,33.565843,43.721792)">
<stop offset="0" style="stop-color:rgb(0%,0%,0%);stop-opacity:0.313725;"/>
<stop offset="0.222222" style="stop-color:rgb(0%,0%,0%);stop-opacity:0.27451;"/>
<stop offset="1" style="stop-color:rgb(0%,0%,0%);stop-opacity:0;"/>
</radialGradient>
<radialGradient id="radial1" gradientUnits="userSpaceOnUse" cx="450.90894" cy="189.57936" fx="450.90894" fy="189.57936" r="21.166656" gradientTransform="matrix(-0.000000119742,0.0537161,0.0966889,0.0000000698078,-12.190427,-5.175142)">
<stop offset="0" style="stop-color:rgb(0%,0%,0%);stop-opacity:0.313725;"/>
<stop offset="0.222222" style="stop-color:rgb(0%,0%,0%);stop-opacity:0.27451;"/>
<stop offset="1" style="stop-color:rgb(0%,0%,0%);stop-opacity:0;"/>
</radialGradient>
<radialGradient id="radial2" gradientUnits="userSpaceOnUse" cx="450.90894" cy="189.57936" fx="450.90894" fy="189.57936" r="21.166656" gradientTransform="matrix(-0.000000119742,-0.0537161,0.0966889,-0.0000000698078,-12.190427,43.721793)">
<stop offset="0" style="stop-color:rgb(0%,0%,0%);stop-opacity:0.313725;"/>
<stop offset="0.222222" style="stop-color:rgb(0%,0%,0%);stop-opacity:0.27451;"/>
<stop offset="1" style="stop-color:rgb(0%,0%,0%);stop-opacity:0;"/>
</radialGradient>
<radialGradient id="radial3" gradientUnits="userSpaceOnUse" cx="450.90894" cy="189.57936" fx="450.90894" fy="189.57936" r="21.166656" gradientTransform="matrix(0.000000119742,0.0537161,-0.0966889,0.0000000698078,33.565842,-5.175142)">
<stop offset="0" style="stop-color:rgb(0%,0%,0%);stop-opacity:0.313725;"/>
<stop offset="0.222222" style="stop-color:rgb(0%,0%,0%);stop-opacity:0.27451;"/>
<stop offset="1" style="stop-color:rgb(0%,0%,0%);stop-opacity:0;"/>
</radialGradient>
<linearGradient id="linear1" gradientUnits="userSpaceOnUse" x1="940" y1="1695.1182" x2="940" y2="175.11812" gradientTransform="matrix(0.0113699,0,0,0.0113699,0,0)">
<stop offset="0" style="stop-color:rgb(100%,79.215686%,15.686275%);stop-opacity:1;"/>
<stop offset="1" style="stop-color:rgb(100%,83.529412%,30.980392%);stop-opacity:1;"/>
</linearGradient>
<linearGradient id="linear2" gradientUnits="userSpaceOnUse" x1="940" y1="1695.1182" x2="940" y2="175.11812" gradientTransform="matrix(0.0113699,0,0,0.0113699,0,0)">
<stop offset="0" style="stop-color:rgb(14.901961%,65.098039%,60.392157%);stop-opacity:1;"/>
<stop offset="1" style="stop-color:rgb(30.196078%,71.372549%,67.45098%);stop-opacity:1;"/>
</linearGradient>
<linearGradient id="linear3" gradientUnits="userSpaceOnUse" x1="1157.7817" y1="1072.8989" x2="614.72894" y2="504.99619" gradientTransform="matrix(0.00803973,0.00803973,-0.00803973,0.00803973,14.325834,1.339246)">
<stop offset="0" style="stop-color:rgb(14.901961%,65.098039%,60.392157%);stop-opacity:1;"/>
<stop offset="1" style="stop-color:rgb(30.196078%,71.372549%,67.45098%);stop-opacity:1;"/>
</linearGradient>
</defs>
<g id="surface1">
<path style=" stroke:none;fill-rule:nonzero;fill:url(#linear0);" d="M 5.914062 19.273438 L 15.464844 19.273438 L 15.464844 20.183594 L 5.914062 20.183594 Z M 5.914062 19.273438 "/>
<path style=" stroke:none;fill-rule:nonzero;fill:url(#radial0);" d="M 15.464844 19.273438 L 17.28125 19.273438 L 17.28125 18.363281 L 15.464844 18.363281 Z M 15.464844 19.273438 "/>
<path style=" stroke:none;fill-rule:nonzero;fill:url(#radial1);" d="M 5.914062 19.273438 L 4.09375 19.273438 L 4.09375 20.183594 L 5.914062 20.183594 Z M 5.914062 19.273438 "/>
<path style=" stroke:none;fill-rule:nonzero;fill:url(#radial2);" d="M 5.914062 19.273438 L 4.09375 19.273438 L 4.09375 18.363281 L 5.914062 18.363281 Z M 5.914062 19.273438 "/>
<path style=" stroke:none;fill-rule:nonzero;fill:url(#radial3);" d="M 15.464844 19.273438 L 17.28125 19.273438 L 17.28125 20.183594 L 15.464844 20.183594 Z M 15.464844 19.273438 "/>
<path style=" stroke:none;fill-rule:nonzero;fill:url(#linear1);" d="M 5.003906 1.992188 C 4.5 1.992188 4.09375 2.398438 4.09375 2.902344 L 4.09375 18.363281 C 4.09375 18.867188 4.5 19.273438 5.003906 19.273438 L 16.371094 19.273438 C 16.875 19.273438 17.28125 18.867188 17.28125 18.363281 L 17.28125 6.085938 L 13.1875 1.992188 Z M 14.097656 1.992188 L 17.28125 5.175781 L 17.28125 2.902344 C 17.28125 2.398438 16.875 1.992188 16.371094 1.992188 Z M 14.097656 1.992188 "/>
<path style=" stroke:none;fill-rule:nonzero;fill:url(#linear2);" d="M 14.097656 1.992188 L 17.28125 5.175781 L 17.28125 2.902344 C 17.28125 2.398438 16.875 1.992188 16.371094 1.992188 Z M 14.097656 1.992188 "/>
<path style=" stroke:none;fill-rule:nonzero;fill:rgb(100%,100%,100%);fill-opacity:0.392157;" d="M 5.003906 1.992188 C 4.5 1.992188 4.09375 2.398438 4.09375 2.902344 L 4.09375 3.128906 C 4.09375 2.625 4.5 2.21875 5.003906 2.21875 L 13.1875 2.21875 L 17.28125 6.3125 L 17.28125 6.085938 L 13.1875 1.992188 Z M 14.097656 1.992188 L 14.324219 2.21875 L 16.371094 2.21875 C 16.875 2.21875 17.28125 2.625 17.28125 3.128906 L 17.28125 2.902344 C 17.28125 2.398438 16.875 1.992188 16.371094 1.992188 Z M 14.097656 1.992188 "/>
<path style=" stroke:none;fill-rule:nonzero;fill:rgb(0%,0%,0%);fill-opacity:0.235294;" d="M 14.097656 1.992188 L 17.28125 5.175781 L 17.28125 4.835938 L 14.4375 1.992188 Z M 4.09375 18.027344 L 4.09375 18.363281 C 4.09375 18.867188 4.5 19.273438 5.003906 19.273438 L 16.371094 19.273438 C 16.875 19.273438 17.28125 18.867188 17.28125 18.363281 L 17.28125 18.027344 C 17.28125 18.53125 16.875 18.9375 16.371094 18.9375 L 5.003906 18.9375 C 4.5 18.9375 4.09375 18.53125 4.09375 18.027344 Z M 4.09375 18.027344 "/>
<path style=" stroke:none;fill-rule:nonzero;fill:rgb(12.941176%,12.941176%,12.941176%);fill-opacity:1;" d="M 5.003906 1.925781 C 4.464844 1.925781 4.027344 2.363281 4.027344 2.902344 L 4.027344 18.363281 C 4.027344 18.902344 4.464844 19.335938 5.003906 19.335938 L 16.371094 19.335938 C 16.910156 19.335938 17.347656 18.902344 17.347656 18.363281 L 17.347656 6.085938 C 17.347656 6.066406 17.339844 6.050781 17.328125 6.039062 L 13.234375 1.945312 C 13.222656 1.933594 13.207031 1.925781 13.1875 1.925781 Z M 14.097656 1.925781 C 14.074219 1.925781 14.050781 1.941406 14.039062 1.964844 C 14.027344 1.992188 14.035156 2.019531 14.054688 2.035156 L 17.238281 5.21875 C 17.253906 5.238281 17.28125 5.246094 17.308594 5.234375 C 17.332031 5.222656 17.347656 5.199219 17.347656 5.175781 L 17.347656 2.902344 C 17.347656 2.363281 16.910156 1.925781 16.371094 1.925781 Z M 5.003906 2.054688 L 13.164062 2.054688 L 17.21875 6.109375 L 17.21875 18.363281 C 17.21875 18.832031 16.84375 19.207031 16.371094 19.207031 L 5.003906 19.207031 C 4.535156 19.207031 4.15625 18.832031 4.15625 18.363281 L 4.15625 2.902344 C 4.15625 2.429688 4.535156 2.054688 5.003906 2.054688 Z M 14.253906 2.054688 L 16.371094 2.054688 C 16.84375 2.054688 17.21875 2.429688 17.21875 2.902344 L 17.21875 5.019531 Z M 14.253906 2.054688 "/>
<path style=" stroke:none;fill-rule:nonzero;fill:url(#linear3);" d="M 17.097656 11.804688 C 16.867188 11.804688 16.632812 11.894531 16.457031 12.074219 L 13.238281 15.289062 L 12.757812 15.773438 L 15.007812 18.023438 L 18.707031 14.324219 C 19.0625 13.96875 19.0625 13.394531 18.707031 13.039062 L 17.742188 12.074219 C 17.5625 11.894531 17.332031 11.804688 17.097656 11.804688 Z M 12.273438 16.253906 C 12.222656 16.304688 12.183594 16.371094 12.160156 16.449219 L 11.515625 18.703125 C 11.417969 19.042969 11.734375 19.363281 12.078125 19.261719 L 14.328125 18.621094 C 14.40625 18.597656 14.472656 18.558594 14.527344 18.503906 Z M 12.273438 16.253906 "/>
<path style=" stroke:none;fill-rule:nonzero;fill:rgb(84.313725%,84.313725%,84.313725%);fill-opacity:0.588235;" d="M 17.097656 11.804688 C 16.867188 11.804688 16.632812 11.894531 16.457031 12.074219 L 13.238281 15.289062 L 12.757812 15.773438 L 12.945312 15.960938 L 13.238281 15.667969 L 16.457031 12.453125 C 16.8125 12.09375 17.386719 12.09375 17.742188 12.453125 L 18.707031 13.417969 C 18.835938 13.546875 18.917969 13.703125 18.953125 13.871094 C 19.015625 13.578125 18.933594 13.265625 18.707031 13.039062 L 17.742188 12.074219 C 17.5625 11.894531 17.332031 11.804688 17.097656 11.804688 Z M 17.097656 11.804688 "/>
<path style=" stroke:none;fill-rule:evenodd;fill:rgb(84.313725%,84.313725%,84.313725%);fill-opacity:0.588235;" d="M 17.097656 11.804688 C 16.867188 11.804688 16.632812 11.894531 16.457031 12.074219 L 13.238281 15.289062 L 12.757812 15.773438 L 12.878906 15.894531 L 13.238281 15.535156 L 16.457031 12.320312 C 16.464844 12.308594 16.476562 12.296875 16.488281 12.289062 C 16.5 12.277344 16.511719 12.269531 16.523438 12.257812 C 16.542969 12.242188 16.5625 12.230469 16.578125 12.214844 C 16.597656 12.203125 16.617188 12.191406 16.636719 12.179688 C 16.664062 12.164062 16.6875 12.152344 16.714844 12.136719 C 16.808594 12.09375 16.910156 12.066406 17.011719 12.058594 C 17.039062 12.054688 17.070312 12.054688 17.097656 12.054688 C 17.128906 12.054688 17.15625 12.054688 17.1875 12.058594 C 17.285156 12.066406 17.386719 12.09375 17.480469 12.136719 C 17.507812 12.152344 17.535156 12.164062 17.558594 12.179688 C 17.578125 12.191406 17.597656 12.203125 17.617188 12.214844 C 17.636719 12.230469 17.65625 12.242188 17.671875 12.257812 C 17.683594 12.269531 17.695312 12.277344 17.707031 12.289062 C 17.71875 12.296875 17.730469 12.308594 17.742188 12.320312 L 18.707031 13.285156 C 18.714844 13.292969 18.722656 13.300781 18.730469 13.3125 C 18.734375 13.3125 18.734375 13.316406 18.738281 13.320312 C 18.742188 13.324219 18.75 13.332031 18.753906 13.335938 C 18.757812 13.339844 18.757812 13.34375 18.761719 13.347656 C 18.769531 13.351562 18.773438 13.359375 18.777344 13.367188 C 18.78125 13.367188 18.78125 13.371094 18.785156 13.371094 C 18.789062 13.382812 18.796875 13.390625 18.804688 13.398438 C 18.804688 13.402344 18.808594 13.402344 18.808594 13.40625 C 18.8125 13.414062 18.820312 13.421875 18.824219 13.429688 C 18.824219 13.429688 18.828125 13.433594 18.828125 13.4375 C 18.832031 13.445312 18.839844 13.453125 18.84375 13.460938 C 18.84375 13.460938 18.847656 13.464844 18.847656 13.464844 C 18.851562 13.476562 18.859375 13.484375 18.863281 13.496094 C 18.871094 13.507812 18.875 13.515625 18.878906 13.527344 C 18.878906 13.527344 18.882812 13.53125 18.882812 13.53125 C 18.886719 13.542969 18.890625 13.550781 18.894531 13.558594 C 18.894531 13.558594 18.898438 13.5625 18.898438 13.566406 C 18.902344 13.574219 18.90625 13.585938 18.910156 13.59375 C 18.914062 13.605469 18.917969 13.617188 18.921875 13.628906 C 18.925781 13.640625 18.929688 13.652344 18.933594 13.664062 C 18.9375 13.675781 18.941406 13.6875 18.945312 13.699219 C 18.949219 13.722656 18.957031 13.746094 18.960938 13.769531 C 18.960938 13.78125 18.964844 13.792969 18.964844 13.804688 C 19.003906 13.53125 18.917969 13.246094 18.707031 13.039062 L 17.742188 12.074219 C 17.5625 11.894531 17.332031 11.804688 17.097656 11.804688 Z M 12.273438 16.253906 C 12.222656 16.304688 12.183594 16.371094 12.160156 16.449219 L 11.515625 18.703125 C 11.492188 18.789062 11.492188 18.875 11.515625 18.953125 C 11.515625 18.949219 11.515625 18.949219 11.515625 18.949219 L 12.160156 16.699219 C 12.183594 16.621094 12.222656 16.554688 12.273438 16.5 L 14.378906 18.605469 C 14.433594 18.578125 14.484375 18.546875 14.527344 18.503906 Z M 12.273438 16.253906 "/>
<path style=" stroke:none;fill-rule:nonzero;fill:rgb(0%,0%,0%);fill-opacity:0.235294;" d="M 18.964844 13.566406 C 18.941406 13.761719 18.855469 13.949219 18.707031 14.097656 L 15.007812 17.796875 L 12.871094 15.65625 L 12.757812 15.773438 L 15.007812 18.023438 L 18.707031 14.324219 C 18.914062 14.117188 19 13.835938 18.964844 13.566406 Z M 14.390625 18.371094 C 14.371094 18.378906 14.351562 18.386719 14.328125 18.394531 L 12.078125 19.035156 C 11.820312 19.109375 11.574219 18.945312 11.511719 18.714844 C 11.425781 19.050781 11.738281 19.359375 12.078125 19.261719 L 14.328125 18.621094 C 14.40625 18.597656 14.472656 18.558594 14.527344 18.503906 Z M 14.390625 18.371094 "/>
<path style="fill:none;stroke-width:3;stroke-linecap:round;stroke-linejoin:round;stroke:rgb(12.941176%,12.941176%,12.941176%);stroke-opacity:1;stroke-miterlimit:4;" d="M 412.869664 65.973168 C 404.597726 57.701231 391.235366 57.701231 382.963429 65.973168 L 308.061491 140.784206 L 296.88074 152.055857 L 349.239377 204.414493 L 435.322065 118.331805 C 443.594003 110.059867 443.594003 96.697507 435.322065 88.42557 Z M 412.869664 65.973168 " transform="matrix(0.0429729,0,0,0.0429729,0,9.239163)"/>
<path style="fill:none;stroke-width:3;stroke-linecap:round;stroke-linejoin:round;stroke:rgb(12.941176%,12.941176%,12.941176%);stroke-opacity:1;stroke-miterlimit:4;" d="M 285.609089 163.236607 C 284.427384 164.418313 283.51838 165.96362 282.972977 167.781628 L 267.97441 220.231165 C 265.701899 228.1395 273.064833 235.593334 281.064069 233.229923 L 333.422705 218.322256 C 335.240713 217.776854 336.78602 216.86785 338.058626 215.595244 Z M 285.609089 163.236607 " transform="matrix(0.0429729,0,0,0.0429729,0,9.239163)"/>
</g>
</svg>
